source/img/energo/energo-parallax-4.svg

<svg width="2500" height="960" fill="none" xmlns="http://www.w3.org/2000/svg"><g opacity=".18" clip-path="url(#clip0)"><path d="M2500 451.497l-1.35-3.402c-21.18-4.011-40.5-15.596-62.2-19.768-21.85-4.204-46.66-8.343-67.69-12.162-46.15-8.408-83.35-23.202-124.3-45.28-36.36-19.64-81.68-36.937-116.05-60.909-32.67-22.816-66.92-51.73-102.9-69.476-17.62-8.697-45.99-18.773-66.08-13.222-11.59 3.177-12.74 11.489-22.18 14.73-18.77 6.418-16.49.161-27.66-.128-28.38-.802-32.07 2.31-52.48 21.404-16.72 15.629-28.21 21.405-50.84 29.749-23.55 8.664-35.62 21.532-56.93 32.668-17.88 9.338-46.96 15.949-67.18 24.1-42.71 17.169-88.55 25.063-132.19 40.98-29.95 10.911-44.1 18.163-77.74 12.034-29.43-5.391-40.28-17.554-68.62-11.264-27.95 6.194-29.62 14.377-59.56-2.054-17.69-9.691-36.34-20.73-52.41-31.256-35.79-23.362-100.46-66.492-146.26-70.279-53.41-4.396-56.29 32.219-104.31 45.569-35.24 9.788-85.081 3.434-117.336 24.678-17.203 11.328-28.468 18.581-46.216 27.662-20.702 10.59-25.099 23.266-41.948 36.969-48.303 39.279-216.96-61.871-236.666-3.466-50.806 2.343-97.6-8.697-146.609-19.254-49.041-10.59-87.458-34.787-129.855-51.795-20.701-8.279-41.98-14.152-63.612-24.164-17.267-7.991-50.292-21.277-68.811-12.099-10.206 5.071-31.773 34.177-39.316 41.815-18.101 18.291-25.964 23.394-52.057 32.026-23.397 7.734-47.404 20.763-71.186 25.512C23.638 411.993-73 394-36 394l-42 321.765c31.164 11.231 166.47 39.985 196.96 41.333 75.037 3.369 153.541 2.182 228.225-3.691 162.014-12.74 322.231-16.302 484.854-16.302 222.191 0 443.451-9.21 665.451-14.088 202.87-4.461 406.06 3.434 609 2.76 135.73-.449 262.02 1.251 393.51-15.051V451.497z" fill="url(#paint0_linear)"/><path d="M2520 705.779l-1.35-3.401c-21.18-4.012-40.5-15.596-62.2-19.768-21.85-4.204-46.66-8.344-67.69-12.163-46.15-8.407-83.35-23.201-124.3-45.28-36.36-19.639-81.68-36.936-116.05-60.908-32.67-22.817-66.92-51.73-102.9-69.477-17.62-8.696-45.99-18.773-66.08-13.221-11.59 3.177-12.74 11.489-22.18 14.73-18.77 6.418-16.49.16-27.66-.129-28.38-.802-32.07 2.311-52.48 21.405-16.72 15.628-28.21 21.404-50.84 29.748-23.55 8.665-35.62 21.533-56.93 32.668-17.88 9.339-46.96 15.95-67.18 24.101-42.71 17.168-88.55 25.063-132.19 40.98-29.95 10.911-44.1 18.163-77.74 12.034-29.43-5.392-40.28-17.554-68.62-11.264-27.95 6.193-29.62 14.376-59.56-2.054-17.69-9.691-36.34-20.731-52.41-31.256-35.79-23.363-100.46-66.493-146.26-70.279-53.41-4.397-56.29 32.219-104.31 45.569-35.24 9.787-85.081 3.433-117.336 24.677-17.203 11.329-28.468 18.581-46.216 27.663-20.702 10.59-25.099 23.266-41.948 36.968-48.303 39.279-216.96-61.871-236.666-3.465-50.806 2.342-97.6-8.697-146.609-19.255-49.041-10.59-87.458-34.786-129.855-51.794-20.701-8.28-41.98-14.153-63.612-24.165-17.267-7.99-50.292-21.276-68.811-12.098-10.206 5.07-31.773 34.177-39.316 41.814-18.101 18.292-25.964 23.394-52.057 32.027-23.397 7.734-47.404 20.763-71.186 25.512-3.82.578-101.639-26.026-105.458-25.512v329.861c31.164 11.232 166.47 39.983 196.96 41.333 75.037 3.37 153.541 2.18 228.225-3.69 162.014-12.74 322.231-16.302 484.854-16.302 222.191 0 443.451-9.211 665.451-14.088 202.87-4.461 406.06 3.433 609 2.759 135.73-.449 262.02 1.252 393.51-15.05v-259.23z" fill="url(#paint1_linear)"/><path d="M936.764 511.475c6.419-8.344 28.886-8.344 35.305-22.271 12.837-38.959 32.091-80.677 89.861-69.573 3.21 0 9.63-5.552 9.63-8.344-9.63-38.958 22.47-50.094 51.35-72.333 6.42-5.551 0-22.271 3.21-33.374 1.96-8.472 7.51-14.858 15.89-17.939-50.13-2.599-53.95 32.733-100.94 45.762-35.24 9.787-85.081 3.433-117.336 24.678-17.203 11.328-28.468 18.58-46.216 27.662-20.702 10.59-25.099 23.266-41.948 36.968-48.303 39.28-216.96-61.871-236.666-3.465-50.806 2.342-97.6-8.697-146.609-19.255-49.041-10.59-87.458-34.786-129.855-51.794-20.701-8.28-41.98-14.152-63.612-24.165-17.267-7.99-50.292-21.276-68.811-12.098-10.206 5.07-31.773 34.177-39.316 41.814-18.101 18.292-25.964 23.394-52.057 32.027-23.397 7.734-47.404 20.763-71.186 25.512-3.82.706-7.639 1.316-11.458 1.829v329.862c31.164 11.231 72.47 12.772 102.96 14.12 75.037 3.369 153.541 2.182 228.225-3.691 94.551-7.445 188.524-11.745 282.69-14.024 128.315-39.535 240.903-118.992 306.889-227.908z" fill="url(#paint2_linear)"/><path d="M1977.53 225.834c-6.39-.481-12.52-.16-18.04 1.348-11.58 3.177-12.74 11.489-22.17 14.73-18.78 6.418-16.5.16-27.67-.128-28.37-.803-32.06 2.31-52.47 21.404-16.73 15.628-28.22 21.405-50.84 29.748-23.56 8.665-35.63 21.533-56.94 32.669-17.87 9.338-46.95 15.949-67.17 24.1-42.72 17.168-88.55 25.063-132.2 40.98-29.94 10.911-44.1 18.163-77.73 12.034-29.43-5.391-40.28-17.554-68.62-11.264-27.96 6.194-29.63 14.377-59.57-2.054-17.68-9.691-36.33-20.73-52.41-31.256-35.79-23.362-100.46-66.492-146.26-70.279a62.229 62.229 0 00-3.37-.193c-8.37 3.081-13.93 9.467-15.88 17.939-3.21 11.136 3.21 27.823-3.21 33.375-28.89 22.271-60.98 33.374-51.35 72.332 0 2.792-6.42 8.344-9.63 8.344-57.77-11.136-77.03 30.614-89.867 69.573-6.419 13.927-28.886 13.927-35.305 22.271-65.986 108.884-178.574 188.341-306.857 227.909 67.174-1.637 134.445-2.279 202.165-2.279 178.154 0 355.704-5.905 533.544-10.782 33.89-23.138 63.93-52.341 97.5-78.527 6.42-8.343 25.68-2.791 38.51-11.135 38.52-22.271 70.61-41.75 112.34-58.437 35.3-13.896 57.77-44.51 89.86-66.781 6.42-5.552 19.26-5.552 19.26-8.344 19.25-22.271 6.42-61.229 38.51-63.989 38.52-2.792 64.19-27.823 83.45-52.854 12.84-16.687 51.35-8.343 57.77-30.614 6.42-27.823 12.84-61.229 51.35-63.989 3.21 0 9.63-8.344 9.63-16.687h16.05c5.87-15.468-10.18-33.343-2.38-49.164z" fill="url(#paint3_linear)"/></g><defs><linearGradient id="paint0_linear" x1="1258" y1="758.987" x2="1258" y2="225.617" gradientUnits="userSpaceOnUse"><stop offset=".237" stop-color="#D1D1D1"/><stop offset=".928" stop-color="#BDBDBD"/><stop offset="1" stop-color="#E1E1E1"/></linearGradient><linearGradient id="paint1_linear" x1="1258" y1="758.987" x2="1258" y2="225.617" gradientUnits="userSpaceOnUse"><stop offset=".237" stop-color="#D1D1D1"/><stop offset=".928" stop-color="#BDBDBD"/><stop offset="1" stop-color="#E1E1E1"/></linearGradient><linearGradient id="paint2_linear" x1="578.998" y1="758.987" x2="578.998" y2="287.503" gradientUnits="userSpaceOnUse"><stop offset=".237" stop-color="#CDCDCD"/><stop offset=".576" stop-color="#BFC1C1"/><stop offset="1" stop-color="#C5C5C5"/></linearGradient><linearGradient id="paint3_linear" x1="1305.55" y1="739.41" x2="1305.55" y2="225.641" gradientUnits="userSpaceOnUse"><stop offset=".157" stop-color="#DADADA"/><stop offset=".376" stop-color="#E4E4E4"/><stop offset="1" stop-color="#C2C2C2"/></linearGradient><clipPath id="clip0"><path fill="#fff" d="M0 0h2500v960H0z"/></clipPath></defs></svg>

<svg width="2500" height="960" viewBox="0 0 2500 960" fill="none" xmlns="http://www.w3.org/2000/svg">
<g clip-path="url(#clip0)">
<g opacity="0.18">
<path d="M2500 451.497L2498.65 448.095C2477.47 444.084 2458.15 432.499 2436.45 428.327C2414.6 424.123 2389.79 419.984 2368.76 416.165C2322.61 407.757 2285.41 392.963 2244.46 370.885C2208.1 351.245 2162.78 333.948 2128.41 309.976C2095.74 287.16 2061.49 258.246 2025.51 240.5C2007.89 231.803 1979.52 221.727 1959.43 227.278C1947.84 230.455 1946.69 238.767 1937.25 242.008C1918.48 248.426 1920.76 242.169 1909.59 241.88C1881.21 241.078 1877.52 244.19 1857.11 263.284C1840.39 278.913 1828.9 284.689 1806.27 293.033C1782.72 301.697 1770.65 314.565 1749.34 325.701C1731.46 335.039 1702.38 341.65 1682.16 349.801C1639.45 366.97 1593.61 374.864 1549.97 390.781C1520.02 401.692 1505.87 408.944 1472.23 402.815C1442.8 397.424 1431.95 385.261 1403.61 391.551C1375.66 397.745 1373.99 405.928 1344.05 389.497C1326.36 379.806 1307.71 368.767 1291.64 358.241C1255.85 334.879 1191.18 291.749 1145.38 287.962C1091.97 283.566 1089.09 320.181 1041.07 333.531C1005.83 343.319 955.989 336.965 923.734 358.209C906.531 369.537 895.266 376.79 877.518 385.871C856.816 396.461 852.419 409.137 835.57 422.84C787.267 462.119 618.61 360.969 598.904 419.374C548.098 421.717 501.304 410.677 452.295 400.12C403.254 389.53 364.837 365.333 322.44 348.325C301.739 340.046 280.46 334.173 258.828 324.161C241.561 316.17 208.536 302.884 190.017 312.062C179.811 317.133 158.244 346.239 150.701 353.877C132.6 372.168 124.737 377.271 98.6438 385.903C75.2468 393.637 51.24 406.666 27.4578 411.415C23.6386 411.993 -73 394 -36 394L-78 715.765C-46.8361 726.996 88.4698 755.75 118.96 757.098C193.997 760.467 272.501 759.28 347.185 753.407C509.199 740.667 669.416 737.105 832.039 737.105C1054.23 737.105 1275.49 727.895 1497.49 723.017C1700.36 718.556 1903.55 726.451 2106.49 725.777C2242.22 725.328 2368.51 727.028 2500 710.726V451.497Z" fill="url(#paint0_linear)"/>
<path d="M2520 705.779L2518.65 702.378C2497.47 698.366 2478.15 686.782 2456.45 682.61C2434.6 678.406 2409.79 674.266 2388.76 670.447C2342.61 662.04 2305.41 647.246 2264.46 625.167C2228.1 605.528 2182.78 588.231 2148.41 564.259C2115.74 541.442 2081.49 512.529 2045.51 494.782C2027.89 486.086 1999.52 476.009 1979.43 481.561C1967.84 484.738 1966.69 493.05 1957.25 496.291C1938.48 502.709 1940.76 496.451 1929.59 496.162C1901.21 495.36 1897.52 498.473 1877.11 517.567C1860.39 533.195 1848.9 538.971 1826.27 547.315C1802.72 555.98 1790.65 568.848 1769.34 579.983C1751.46 589.322 1722.38 595.933 1702.16 604.084C1659.45 621.252 1613.61 629.147 1569.97 645.064C1540.02 655.975 1525.87 663.227 1492.23 657.098C1462.8 651.706 1451.95 639.544 1423.61 645.834C1395.66 652.027 1393.99 660.21 1364.05 643.78C1346.36 634.089 1327.71 623.049 1311.64 612.524C1275.85 589.161 1211.18 546.031 1165.38 542.245C1111.97 537.848 1109.09 574.464 1061.07 587.814C1025.83 597.601 975.989 591.247 943.734 612.491C926.531 623.82 915.266 631.072 897.518 640.154C876.816 650.744 872.419 663.42 855.57 677.122C807.267 716.401 638.61 615.251 618.904 673.657C568.098 675.999 521.304 664.96 472.295 654.402C423.254 643.812 384.837 619.616 342.44 602.608C321.739 594.328 300.46 588.455 278.828 578.443C261.561 570.453 228.536 557.167 210.017 566.345C199.811 571.415 178.244 600.522 170.701 608.159C152.6 626.451 144.737 631.553 118.644 640.186C95.2468 647.92 71.24 660.949 47.4578 665.698C43.6386 666.276 -54.1807 639.672 -58 640.186V970.047C-26.8361 981.279 108.47 1010.03 138.96 1011.38C213.997 1014.75 292.501 1013.56 367.185 1007.69C529.199 994.95 689.416 991.388 852.039 991.388C1074.23 991.388 1295.49 982.177 1517.49 977.3C1720.36 972.839 1923.55 980.733 2126.49 980.059C2262.22 979.61 2388.51 981.311 2520 965.009V705.779Z" fill="url(#paint1_linear)"/>
<path d="M936.764 511.475C943.183 503.131 965.65 503.131 972.069 489.204C984.906 450.245 1004.16 408.527 1061.93 419.631C1065.14 419.631 1071.56 414.079 1071.56 411.287C1061.93 372.329 1094.03 361.193 1122.91 338.954C1129.33 333.403 1122.91 316.683 1126.12 305.58C1128.08 297.108 1133.63 290.722 1142.01 287.641C1091.88 285.042 1088.06 320.374 1041.07 333.403C1005.83 343.19 955.989 336.836 923.734 358.081C906.531 369.409 895.266 376.661 877.518 385.743C856.816 396.333 852.419 409.009 835.57 422.711C787.267 461.991 618.61 360.84 598.904 419.246C548.098 421.588 501.304 410.549 452.295 399.991C403.254 389.401 364.837 365.205 322.44 348.197C301.739 339.917 280.46 334.045 258.828 324.032C241.561 316.042 208.536 302.756 190.017 311.934C179.811 317.004 158.244 346.111 150.701 353.748C132.6 372.04 124.737 377.142 98.6438 385.775C75.2468 393.509 51.24 406.538 27.4578 411.287C23.6385 411.993 19.8193 412.603 16 413.116V742.978C47.1639 754.209 88.4698 755.75 118.96 757.098C193.997 760.467 272.501 759.28 347.185 753.407C441.736 745.962 535.709 741.662 629.875 739.383C758.19 699.848 870.778 620.391 936.764 511.475Z" fill="url(#paint2_linear)"/>
<path d="M1977.53 225.834C1971.14 225.353 1965.01 225.674 1959.49 227.182C1947.91 230.359 1946.75 238.671 1937.32 241.912C1918.54 248.33 1920.82 242.072 1909.65 241.784C1881.28 240.981 1877.59 244.094 1857.18 263.188C1840.45 278.816 1828.96 284.593 1806.34 292.936C1782.78 301.601 1770.71 314.469 1749.4 325.605C1731.53 334.943 1702.45 341.554 1682.23 349.705C1639.51 366.873 1593.68 374.768 1550.03 390.685C1520.09 401.596 1505.93 408.848 1472.3 402.719C1442.87 397.328 1432.02 385.165 1403.68 391.455C1375.72 397.649 1374.05 405.832 1344.11 389.401C1326.43 379.71 1307.78 368.671 1291.7 358.145C1255.91 334.783 1191.24 291.653 1145.44 287.866C1144.29 287.77 1143.17 287.705 1142.07 287.673C1133.7 290.754 1128.14 297.14 1126.19 305.612C1122.98 316.748 1129.4 333.435 1122.98 338.987C1094.09 361.258 1062 372.361 1071.63 411.319C1071.63 414.111 1065.21 419.663 1062 419.663C1004.23 408.527 984.97 450.277 972.133 489.236C965.714 503.163 943.247 503.163 936.828 511.507C870.842 620.391 758.254 699.848 629.971 739.416C697.145 737.779 764.416 737.137 832.136 737.137C1010.29 737.137 1187.84 731.232 1365.68 726.355C1399.57 703.217 1429.61 674.014 1463.18 647.828C1469.6 639.485 1488.86 645.037 1501.69 636.693C1540.21 614.422 1572.3 594.943 1614.03 578.256C1649.33 564.36 1671.8 533.746 1703.89 511.475C1710.31 505.923 1723.15 505.923 1723.15 503.131C1742.4 480.86 1729.57 441.902 1761.66 439.142C1800.18 436.35 1825.85 411.319 1845.11 386.288C1857.95 369.601 1896.46 377.945 1902.88 355.674C1909.3 327.851 1915.72 294.445 1954.23 291.685C1957.44 291.685 1963.86 283.341 1963.86 274.998C1970.28 274.998 1976.7 274.998 1979.91 274.998C1985.78 259.53 1969.73 241.655 1977.53 225.834Z" fill="url(#paint3_linear)"/>
</g>
</g>
<defs>
<linearGradient id="paint0_linear" x1="1258" y1="758.987" x2="1258" y2="225.617" gradientUnits="userSpaceOnUse">
<stop offset="0.2366" stop-color="#D1D1D1"/>
<stop offset="0.9278" stop-color="#BDBDBD"/>
<stop offset="1" stop-color="#E1E1E1"/>
</linearGradient>
<linearGradient id="paint1_linear" x1="1258" y1="758.987" x2="1258" y2="225.617" gradientUnits="userSpaceOnUse">
<stop offset="0.2366" stop-color="#D1D1D1"/>
<stop offset="0.9278" stop-color="#BDBDBD"/>
<stop offset="1" stop-color="#E1E1E1"/>
</linearGradient>
<linearGradient id="paint2_linear" x1="578.998" y1="758.987" x2="578.998" y2="287.503" gradientUnits="userSpaceOnUse">
<stop offset="0.2366" stop-color="#CDCDCD"/>
<stop offset="0.5757" stop-color="#BFC1C1"/>
<stop offset="1" stop-color="#C5C5C5"/>
</linearGradient>
<linearGradient id="paint3_linear" x1="1305.55" y1="739.41" x2="1305.55" y2="225.641" gradientUnits="userSpaceOnUse">
<stop offset="0.156957" stop-color="#DADADA"/>
<stop offset="0.375878" stop-color="#E4E4E4"/>
<stop offset="1" stop-color="#C2C2C2"/>
</linearGradient>
<clipPath id="clip0">
<rect width="2500" height="960" fill="white"/>
</clipPath>
</defs>
</svg>
